!!!OTL: SEID NUR LUSTIG UND FROEHLICH
!!!ARE: Europa, Mitteleuropa, Deutschland
!!!SCT: F0091
!!!YEM: Copyright 1995, estate of Helmut Schaffrath.
**kern
*ICvox
*Ivox
*M3/4
*k[f#]
*G:
=1
{4.dd
8dd
8dd
8cc
=2
4b
4cc
4dd}
=3
{4dd
8ee
8dd
8cc
8b
=4
8b
8a
4.a
8r}
=5
{8.dd
16ee
8dd
8cc
8b
8r
=6
8.dd
16ee
8dd
8cc
8b
8r}
=7
{8g
8a
8a
8g
8a
8a
=8
4a
8a
4b
8r}
==
!!!AGN: Handwerker -, Handwerksburschen -, Wander - Lied
!!!ONB: ESAC (Essen Associative Code) Database: FINK
!!!AMT: simple triple
!!!AIN: vox
!!!EED: Helmut Schaffrath
!!!EEV: 1.0
*-
